!!!!SEGMENT: pl-kk--kk-i-322--001_casali-giovanni-battista--credidi-propter-credidi-propter.krn
!!!cenid: 17xx:2123
!!!COM: Casali, Giovanni Battista
!!!COM-rismid: pe30000607
!!!CDT: 1715-1792/07/06
!!!CNT: Italian
!!!OPR: Credidi propter
!!!OTL: Credidi propter
!!!OMV: 001
!!!PDT:
!!!AGN: Sacred
!!!SMS-siglum: PL-Kk
!!!SMS-shelfmark: Kk.I.322
!!!SMS-shelfwork: 001-001 M
!!!SMS-variant:
!!!SMS-altvar:
!!!NIFC-rismid: 1001146194
!!!URL-scan: http://repozytorium.nifc.pl/skany/pl-kk-nut--i-322
!!!ONB-nifc: UWAGA: części Credidi: 1. Credidi propter, 2. Calicem salutaris, 3. Vota mea, 4. O Domine, 5. Dirupisti vincula mea, 6. Vota mea, 7. Gloria Patri, 8. Et in saecula saeculorum
!!!AIN: 1 alto 1 empty 1 organ 1 tenor 2 vox
!!!key:
**kern	**fba	**kern	**text	**kern	**text	**kern	**text	**kern	**text	**kern	**text
*part6	*	*part5	*part5	*part4	*part4	*part3	*part3	*part2	*part2	*part1	*part1
*staff6	*	*staff5	*staff5	*staff4	*staff4	*staff3	*staff3	*staff2	*staff2	*staff1	*staff1
*Iorgan	*	*Iempty	*	*Itenor	*	*Ialto	*	*Ivox	*	*Ivox	*
*I"Organo	*	*I"Baſso di Ripieno	*	*I"Tenore di Ripieno	*	*I"Alto Di Ripieno	*	*I"Canto di Ripieno	*	*I"Canto Solo	*
*I'Org.	*	*I'B. rip	*	*I'T rip	*	*I'A rip	*	*I'C rip	*	*I'C. Solo	*
*clefF4	*	*clefF4	*	*clefC4	*	*clefC3	*	*clefC1	*	*clefC1	*
*k[f#c#]	*	*k[f#c#]	*	*k[f#c#]	*	*k[f#c#]	*	*k[f#c#]	*	*k[f#c#]	*
*b:	*	*b:	*	*b:	*	*b:	*	*b:	*	*b:	*
*M2/4	*	*M2/4	*	*M2/4	*	*M2/4	*	*M2/4	*	*M2/4	*
=1	=1	=1	=1	=1	=1	=1	=1	=1	=1	=1	=1
!	!	!	!	!LO:TX:a:t=81.	!	!LO:TX:a:t=81.	!	!LO:TX:a:t=81.	!	!	!
!LO:TX:a:t=P:all\right:problem	!	!LO:TX:b:t=Credidi	!	!LO:TX:b:t=Credidi	!	!LO:TX:b:t=Credidi	!	!LO:TX:b:t=Credidi	!	!LO:TX:a:t=Allegretto	!
!	!	!LO:TX:a:t=Tutti	!	!LO:TX:a:t=Tutti	!	!LO:TX:a:t=Tutti	!	!LO:TX:a:t=Tutti	!	!LO:TX:b:t=1	!
4D/|	.	0r	.	0r	.	0r	.	0r	.	1r	.
4D/|	.	.	.	.	.	.	.	.	.	.	.
=2	=2	=2	=2	=2	=2	=2	=2	=2	=2	=2	=2
4C#/|	6	.	.	.	.	.	.	.	.	.	.
4C#/|	.	.	.	.	.	.	.	.	.	.	.
=3	=3	=3	=3	=3	=3	=3	=3	=3	=3	=3	=3
!LO:TX:b:t=credidi	!	!	!	!	!	!	!	!	!	!	!
!	!	!	!	!	!	!	!	!	!	!LO:TX:a:t=P:all\right:problem	!
4D/|	.	.	.	.	.	.	.	.	.	4dd\	Cre-
4D/|	.	.	.	.	.	.	.	.	.	8a\	-di-
.	.	.	.	.	.	.	.	.	.	8a\	-di
=4	=4	=4	=4	=4	=4	=4	=4	=4	=4	=4	=4
4C#/|	6	.	.	.	.	.	.	.	.	4a\	pro-
4C#/|	.	.	.	.	.	.	.	.	.	8b\L	-pter
.	.	.	.	.	.	.	.	.	.	8cc#\J	.
=5	=5	=5	=5	=5	=5	=5	=5	=5	=5	=5	=5
.	.	.	.	.	.	.	.	.	.	8qqee/	.
*	*	*	*	*	*	*	*	*	*	*2\right	*
4BB/|	.	0r	.	0r	.	0r	.	0r	.	[2dd\	quod
4BB/|	5	.	.	.	.	.	.	.	.	.	.
!LO:LB:g=original	!	!	!	!	!	!	!	!	!	!LO:LB:g=original	!
=6	=6	=6	=6	=6	=6	=6	=6	=6	=6	=6	=6
4F#\	6	.	.	.	.	.	.	.	.	4dd\]	.
4F#\	.	.	.	.	.	.	.	.	.	8aa\L	lo-
.	.	.	.	.	.	.	.	.	.	8ff#\J	.
=7	=7	=7	=7	=7	=7	=7	=7	=7	=7	=7	=7
4G\	6	.	.	.	.	.	.	.	.	4ee\	-cu-
4G\	.	.	.	.	.	.	.	.	.	8gg\L	.
.	.	.	.	.	.	.	.	.	.	8ee\J	.
=8	=8	=8	=8	=8	=8	=8	=8	=8	=8	=8	=8
.	.	.	.	.	.	.	.	.	.	8qqdd/	.
4A\	6 4	.	.	.	.	.	.	.	.	2cc#\	-tus
4A\	3	.	.	.	.	.	.	.	.	.	.
=9	=9	=9	=9	=9	=9	=9	=9	=9	=9	=9	=9
.	.	.	.	.	.	.	.	.	.	8qqee/	.
4B\	5	0r	.	0r	.	0r	.	0r	.	2dd\	sum
4B\	.	.	.	.	.	.	.	.	.	.	.
=10	=10	=10	=10	=10	=10	=10	=10	=10	=10	=10	=10
4C#/	6	.	.	.	.	.	.	.	.	4.ee\	pro-
4C#/	5	.	.	.	.	.	.	.	.	.	.
.	.	.	.	.	.	.	.	.	.	8gg\	-pter
=11	=11	=11	=11	=11	=11	=11	=11	=11	=11	=11	=11
4D\	.	.	.	.	.	.	.	.	.	4ff#\	quod
4G\	.	.	.	.	.	.	.	.	.	8gg\L	lo-
.	.	.	.	.	.	.	.	.	.	8ee\J	.
!	!	!	!	!	!	!	!	!	!	!LO:LB:g=original	!
=12	=12	=12	=12	=12	=12	=12	=12	=12	=12	=12	=12
*	*below	*	*	*	*	*	*	*	*	*	*
4A\	6 4	.	.	.	.	.	.	.	.	4dd\	-cu-
4AA/	3	.	.	.	.	.	.	.	.	4cc#\	-tus
!	!LO:LB:g=original	!	!	!	!	!	!	!	!	!	!
=13	=13	=13	=13	=13	=13	=13	=13	=13	=13	=13	=13
8d\L	.	0r	.	0r	.	0r	.	0r	.	4dd\	sum
8D\	.	.	.	.	.	.	.	.	.	.	.
8F#\	.	.	.	.	.	.	.	.	.	4r	.
8A\J	.	.	.	.	.	.	.	.	.	.	.
=14	=14	=14	=14	=14	=14	=14	=14	=14	=14	=14	=14
4d\	.	.	.	.	.	.	.	.	.	4.ff#\	E-
4d\	.	.	.	.	.	.	.	.	.	.	.
.	.	.	.	.	.	.	.	.	.	8dd\	-go
=15	=15	=15	=15	=15	=15	=15	=15	=15	=15	=15	=15
4c#\	6	.	.	.	.	.	.	.	.	8.aa\	au-
.	.	.	.	.	.	.	.	.	.	16a\	.
4c#\	.	.	.	.	.	.	.	.	.	8a\	-tem
.	.	.	.	.	.	.	.	.	.	8a\	hu-
=16	=16	=16	=16	=16	=16	=16	=16	=16	=16	=16	=16
4B\	#6	.	.	.	.	.	.	.	.	4.dd\	-mi-
4G#X\	5	.	.	.	.	.	.	.	.	.	.
.	.	.	.	.	.	.	.	.	.	8dd\	-li-
!	!	!	!	!	!	!	!	!	!	!LO:LB:g=original	!
=17	=17	=17	=17	=17	=17	=17	=17	=17	=17	=17	=17
4A\	4	0r	.	0r	.	0r	.	0r	.	4dd\	-a-
4AA/	3	.	.	.	.	.	.	.	.	4cc#\	-tus
=18	=18	=18	=18	=18	=18	=18	=18	=18	=18	=18	=18
4C#/	6	.	.	.	.	.	.	.	.	4r	.
4C#/	.	.	.	.	.	.	.	.	.	8r	.
.	.	.	.	.	.	.	.	.	.	8ee\	hu-
!LO:LB:g=original	!	!	!	!	!	!	!	!	!	!	!
=19	=19	=19	=19	=19	=19	=19	=19	=19	=19	=19	=19
4C#/	.	.	.	.	.	.	.	.	.	4ee\	-mi-
4C#/	.	.	.	.	.	.	.	.	.	4a\	-li-
=20	=20	=20	=20	=20	=20	=20	=20	=20	=20	=20	=20
4D\	.	.	.	.	.	.	.	.	.	4ff#\	-a-
4D\	.	.	.	.	.	.	.	.	.	4dd\	.
=21	=21	=21	=21	=21	=21	=21	=21	=21	=21	=21	=21
4D\	6	0r	.	0r	.	0r	.	0r	.	4b\	-tus
4D#X\	5	.	.	.	.	.	.	.	.	4a\	s(um)
=22	=22	=22	=22	=22	=22	=22	=22	=22	=22	=22	=22
4E\	#3	.	.	.	.	.	.	.	.	8.g#X\L	ni-
.	.	.	.	.	.	.	.	.	.	16a\Jk	.
4E\	.	.	.	.	.	.	.	.	.	4b\	-mis
!	!	!	!	!	!	!	!	!	!	!LO:LB:g=original	!
=23	=23	=23	=23	=23	=23	=23	=23	=23	=23	=23	=23
8E\L	.	.	.	.	.	.	.	.	.	4r	.
8F#\	.	.	.	.	.	.	.	.	.	.	.
8E\	.	.	.	.	.	.	.	.	.	8r	.
8D\J	.	.	.	.	.	.	.	.	.	8ee\	hu-
=24	=24	=24	=24	=24	=24	=24	=24	=24	=24	=24	=24
4C#/	.	.	.	.	.	.	.	.	.	4ee\	-mi-
4C#/	6	.	.	.	.	.	.	.	.	4a\	-li-
=25	=25	=25	=25	=25	=25	=25	=25	=25	=25	=25	=25
4D\	.	0r	.	0r	.	0r	.	0r	.	16ff#\LL	-a-
.	.	.	.	.	.	.	.	.	.	16gg\	.
.	.	.	.	.	.	.	.	.	.	16ff#\	.
.	.	.	.	.	.	.	.	.	.	16ee\JJ	.
4D\	.	.	.	.	.	.	.	.	.	4dd\|	.
=26	=26	=26	=26	=26	=26	=26	=26	=26	=26	=26	=26
4D\	.	.	.	.	.	.	.	.	.	8r	.
.	.	.	.	.	.	.	.	.	.	8a\L	.
4D\	.	.	.	.	.	.	.	.	.	8dd\	.
.	.	.	.	.	.	.	.	.	.	8ff#\J	.
!LO:LB:g=original	!	!	!	!	!	!	!	!	!	!	!
=27	=27	=27	=27	=27	=27	=27	=27	=27	=27	=27	=27
4C#/	6	.	.	.	.	.	.	.	.	16ee\LL	.
.	.	.	.	.	.	.	.	.	.	16ff#\	.
.	.	.	.	.	.	.	.	.	.	16ee\	.
.	.	.	.	.	.	.	.	.	.	16dd\JJ	.
4C#/	.	.	.	.	.	.	.	.	.	4cc#\|	.
!	!	!	!	!	!	!	!	!	!	!LO:LB:g=original	!
=28	=28	=28	=28	=28	=28	=28	=28	=28	=28	=28	=28
4C#/	.	.	.	.	.	.	.	.	.	8r	.
.	.	.	.	.	.	.	.	.	.	8a\L	.
4C#/	.	.	.	.	.	.	.	.	.	8cc#\	.
.	.	.	.	.	.	.	.	.	.	8ee\J	.
=29	=29	=29	=29	=29	=29	=29	=29	=29	=29	=29	=29
4BB/	.	0r	.	0r	.	0r	.	0r	.	16dd\LL	.
.	.	.	.	.	.	.	.	.	.	16ee\	.
.	.	.	.	.	.	.	.	.	.	16dd\	.
.	.	.	.	.	.	.	.	.	.	16cc#\JJ	.
4BB/	7	.	.	.	.	.	.	.	.	4b\	.
=30	=30	=30	=30	=30	=30	=30	=30	=30	=30	=30	=30
4BB/	#	.	.	.	.	.	.	.	.	8r	.
.	.	.	.	.	.	.	.	.	.	8g#X\L	.
4BB/	6	.	.	.	.	.	.	.	.	8b\	.
.	.	.	.	.	.	.	.	.	.	8dd\J	.
=31	=31	=31	=31	=31	=31	=31	=31	=31	=31	=31	=31
4AA/	#	.	.	.	.	.	.	.	.	4cc#\	.
4BB/	6	.	.	.	.	.	.	.	.	8dd\L	.
.	.	.	.	.	.	.	.	.	.	16ee\L	.
.	.	.	.	.	.	.	.	.	.	16ff#\JJ	.
=32	=32	=32	=32	=32	=32	=32	=32	=32	=32	=32	=32
4C#/	.	.	.	.	.	.	.	.	.	4ee\|	.
4GG#X/	.	.	.	.	.	.	.	.	.	8b\L	.
.	.	.	.	.	.	.	.	.	.	16cc#\L	.
.	.	.	.	.	.	.	.	.	.	16dd\JJ	.
!LO:LB:g=original	!	!	!	!	!	!	!	!	!	!LO:LB:g=original	!
=33	=33	=33	=33	=33	=33	=33	=33	=33	=33	=33	=33
4AA/	.	0r	.	0r	.	0r	.	0r	.	4cc#\|	.
4BB/	.	.	.	.	.	.	.	.	.	8dd\L	.
.	.	.	.	.	.	.	.	.	.	16ee\L	.
.	.	.	.	.	.	.	.	.	.	16ff#\JJ	.
=34	=34	=34	=34	=34	=34	=34	=34	=34	=34	=34	=34
4C#/	.	.	.	.	.	.	.	.	.	4ee\|	.
4GG#X/	.	.	.	.	.	.	.	.	.	8b\L	.
.	.	.	.	.	.	.	.	.	.	16cc#\L	.
.	.	.	.	.	.	.	.	.	.	16dd\JJ	.
=35	=35	=35	=35	=35	=35	=35	=35	=35	=35	=35	=35
8AA/L	.	.	.	.	.	.	.	.	.	8cc#\L	.
8AA/J	.	.	.	.	.	.	.	.	.	8aa\J	.
8D\L	.	.	.	.	.	.	.	.	.	8ff#\	-t(us)
8D\J	.	.	.	.	.	.	.	.	.	8dd\	s(um)
=36	=36	=36	=36	=36	=36	=36	=36	=36	=36	=36	=36
!LO:TX:a:t=P:mixedbeam:problem	!	!	!	!	!	!	!	!	!	!	!
8E\L	6 4	.	.	.	.	.	.	.	.	(4cc#\	ni-
8E\	.	.	.	.	.	.	.	.	.	.	.
8EE/	#	.	.	.	.	.	.	.	.	4b\)	.
8EE/J	3	.	.	.	.	.	.	.	.	.	.
=37	=37	=37	=37	=37	=37	=37	=37	=37	=37	=37	=37
4F#\	5	0r	.	0r	.	0r	.	0r	.	4a\	-mis
4C#/	.	.	.	.	.	.	.	.	.	8r	.
.	.	.	.	.	.	.	.	.	.	8ee\	hu-
!	!	!	!	!	!	!	!	!	!	!LO:LB:g=original	!
=38	=38	=38	=38	=38	=38	=38	=38	=38	=38	=38	=38
4D\	6 5	.	.	.	.	.	.	.	.	4f#/	-mi-
4E\	#	.	.	.	.	.	.	.	.	4g#X/	-li-
!LO:LB:g=original	!	!	!	!	!	!	!	!	!	!	!
=39	=39	=39	=39	=39	=39	=39	=39	=39	=39	=39	=39
4F#\	5	.	.	.	.	.	.	.	.	4a\	-a-
*	*above	*	*	*	*	*	*	*	*	*	*
4G#X\	4	.	.	.	.	.	.	.	.	8b\	-t(us)
.	.	.	.	.	.	.	.	.	.	8b\	hu-
=40	=40	=40	=40	=40	=40	=40	=40	=40	=40	=40	=40
4A\	.	.	.	.	.	.	.	.	.	4cc#\	-mi-
4B\	#6	.	.	.	.	.	.	.	.	4dd\	-li-
=41	=41	=41	=41	=41	=41	=41	=41	=41	=41	=41	=41
!LO:TX:a:t=P:problem=mixedbeam	!	!	!	!	!	!	!	!	!	!	!
8c#\L	.	0r	.	0r	.	0r	.	0r	.	8ee\L	-a-
8c#\	.	.	.	.	.	.	.	.	.	8aa\J	.
*	*below	*	*	*	*	*	*	*	*	*	*
8D/	6 5	.	.	.	.	.	.	.	.	8ff#\	-t(us)
.	.	.	.	.	.	.	.	.	.	8qqee/	.
8D/J	.	.	.	.	.	.	.	.	.	8dd\	s(um)
=42	=42	=42	=42	=42	=42	=42	=42	=42	=42	=42	=42
!LO:TX:a:t=P:problem=mixedbeam	!	!	!	!	!	!	!	!	!	!	!
8E\L	6 4	.	.	.	.	.	.	.	.	(4cc#\	ni-
8E\	.	.	.	.	.	.	.	.	.	.	.
8EE/	#	.	.	.	.	.	.	.	.	4b\)	.
8EE/J	3	.	.	.	.	.	.	.	.	.	.
=43	=43	=43	=43	=43	=43	=43	=43	=43	=43	=43	=43
!LO:TX:a:t=P:problem=mixedbeam	!	!	!	!	!	!	!	!	!	!	!
8A\L	.	.	.	.	.	.	.	.	.	4a\	-mis
8AA/	.	.	.	.	.	.	.	.	.	.	.
8C#/	.	.	.	.	.	.	.	.	.	4r	.
8E/J	.	.	.	.	.	.	.	.	.	.	.
!	!	!	!	!	!	!	!	!	!	!LO:LB:g=original	!
=44	=44	=44	=44	=44	=44	=44	=44	=44	=44	=44	=44
!LO:TX:b:t=credidi	!	!	!	!	!	!	!	!	!	!	!
4A\	.	.	.	.	.	.	.	.	.	4ee\	cre-
4A\	.	.	.	.	.	.	.	.	.	8a\	-di-
.	.	.	.	.	.	.	.	.	.	8a\	-di
!LO:LB:g=original	!	!	!	!	!	!	!	!	!	!	!
=45	=45	=45	=45	=45	=45	=45	=45	=45	=45	=45	=45
4A\	.	0r	.	0r	.	0r	.	0r	.	4a\	pro-
*	*above	*	*	*	*	*	*	*	*	*	*
4G\	2	.	.	.	.	.	.	.	.	8b\L	-pter
.	.	.	.	.	.	.	.	.	.	8cc#\J	.
=46	=46	=46	=46	=46	=46	=46	=46	=46	=46	=46	=46
.	.	.	.	.	.	.	.	.	.	8qqee/	.
*	*below	*	*	*	*	*	*	*	*	*	*
4F#\	6	.	.	.	.	.	.	.	.	[2dd\	quod
4F#\	.	.	.	.	.	.	.	.	.	.	.
=47	=47	=47	=47	=47	=47	=47	=47	=47	=47	=47	=47
4F#\	.	.	.	.	.	.	.	.	.	4dd\]	.
4F#\	.	.	.	.	.	.	.	.	.	8aa\L	lo-
.	.	.	.	.	.	.	.	.	.	8ff#\J	.
=48	=48	=48	=48	=48	=48	=48	=48	=48	=48	=48	=48
4G\	6	.	.	.	.	.	.	.	.	4ee\	-cu-
4G\	.	.	.	.	.	.	.	.	.	8gg\L	.
.	.	.	.	.	.	.	.	.	.	8ee\J	.
=49	=49	=49	=49	=49	=49	=49	=49	=49	=49	=49	=49
.	.	.	.	.	.	.	.	.	.	8qqdd/	.
4A\	.	0r	.	0r	.	0r	.	0r	.	2cc#\	-t(us)
4A\	.	.	.	.	.	.	.	.	.	.	.
=50	=50	=50	=50	=50	=50	=50	=50	=50	=50	=50	=50
!LO:TX:a:t=P:problem=mixedbeam	!	!	!	!	!	!	!	!	!	!	!
8D\L	.	.	.	.	.	.	.	.	.	4dd\	sum
8DD/J	.	.	.	.	.	.	.	.	.	.	.
4DD/	.	.	.	.	.	.	.	.	.	4r	.
!LO:LB:g=original	!	!	!	!	!	!	!	!	!	!LO:PB:g=original	!
=51	=51	=51	=51	=51	=51	=51	=51	=51	=51	=51	=51
4F#\	6	.	.	.	.	.	.	.	.	4.dd\	E-
.	4	.	.	.	.	.	.	.	.	.	.
4F#\	5	.	.	.	.	.	.	.	.	.	.
.	.	.	.	.	.	.	.	.	.	8ccn\	-go
=52	=52	=52	=52	=52	=52	=52	=52	=52	=52	=52	=52
4D#X/	6	.	.	.	.	.	.	.	.	4.b\	au-
4D#/	.	.	.	.	.	.	.	.	.	.	.
.	.	.	.	.	.	.	.	.	.	8b\	-tem
=53	=53	=53	=53	=53	=53	=53	=53	=53	=53	=53	=53
4D/	.	0r	.	0r	.	0r	.	0r	.	4.b\	hu-
4D/	.	.	.	.	.	.	.	.	.	.	.
.	.	.	.	.	.	.	.	.	.	8b\	-mi-
=54	=54	=54	=54	=54	=54	=54	=54	=54	=54	=54	=54
4D/	.	.	.	.	.	.	.	.	.	4.b\	-li-
4D/	5	.	.	.	.	.	.	.	.	.	.
.	.	.	.	.	.	.	.	.	.	8a\	.
=55	=55	=55	=55	=55	=55	=55	=55	=55	=55	=55	=55
4E\	9 4	.	.	.	.	.	.	.	.	4a\	-a-
4E\	8 #3	.	.	.	.	.	.	.	.	8g#X\	-t(us)
.	.	.	.	.	.	.	.	.	.	8e/	hu-
!	!	!	!	!	!	!	!	!	!	!LO:LB:g=original	!
=56	=56	=56	=56	=56	=56	=56	=56	=56	=56	=56	=56
4C#/	4	.	.	.	.	.	.	.	.	4.gn/	-mi-
4C#/	5	.	.	.	.	.	.	.	.	.	.
.	.	.	.	.	.	.	.	.	.	8g/	-li-
=57	=57	=57	=57	=57	=57	=57	=57	=57	=57	=57	=57
4D\	.	0r	.	0r	.	0r	.	0r	.	4.f#/	-a-
4D\	.	.	.	.	.	.	.	.	.	.	.
.	.	.	.	.	.	.	.	.	.	8dd\	.
!LO:PB:g=original	!	!	!	!	!	!	!	!	!	!	!
=58	=58	=58	=58	=58	=58	=58	=58	=58	=58	=58	=58
4GG#X/	7	.	.	.	.	.	.	.	.	4.dd\	-t(us)
.	5	.	.	.	.	.	.	.	.	.	.
4GG#/	.	.	.	.	.	.	.	.	.	.	.
.	.	.	.	.	.	.	.	.	.	8f#/	s(um)
=59	=59	=59	=59	=59	=59	=59	=59	=59	=59	=59	=59
4AA/	6 4	.	.	.	.	.	.	.	.	4f#/	ni-
4AA/	4 3	.	.	.	.	.	.	.	.	4e/	-mis
=60	=60	=60	=60	=60	=60	=60	=60	=60	=60	=60	=60
8A\L	.	.	.	.	.	.	.	.	.	4r	.
8B\	.	.	.	.	.	.	.	.	.	.	.
8A\	.	.	.	.	.	.	.	.	.	8r	.
8Gn\J	.	.	.	.	.	.	.	.	.	8a\	hu-
=61	=61	=61	=61	=61	=61	=61	=61	=61	=61	=61	=61
4F#\	6	0r	.	0r	.	0r	.	0r	.	4dd\	-mi-
4F#\	.	.	.	.	.	.	.	.	.	4a\	-li-
!	!	!	!	!	!	!	!	!	!	!LO:LB:g=original	!
=62	=62	=62	=62	=62	=62	=62	=62	=62	=62	=62	=62
4G\	.	.	.	.	.	.	.	.	.	16b\LL	-a-
.	.	.	.	.	.	.	.	.	.	16cc#\	.
.	.	.	.	.	.	.	.	.	.	16b\	.
.	.	.	.	.	.	.	.	.	.	16a\JJ	.
4G\	.	.	.	.	.	.	.	.	.	4b\|	.
=63	=63	=63	=63	=63	=63	=63	=63	=63	=63	=63	=63
*	*above	*	*	*	*	*	*	*	*	*	*
4G\	6	.	.	.	.	.	.	.	.	16gg\LL	.
.	.	.	.	.	.	.	.	.	.	16aa\	.
.	.	.	.	.	.	.	.	.	.	16gg\	.
.	.	.	.	.	.	.	.	.	.	16ff#\JJ	.
4G\	.	.	.	.	.	.	.	.	.	16ee\LL	.
.	.	.	.	.	.	.	.	.	.	16ff#\	.
.	.	.	.	.	.	.	.	.	.	16ee\	.
.	.	.	.	.	.	.	.	.	.	16dd\JJ	.
!LO:LB:g=original	!	!	!	!	!	!	!	!	!	!	!
=64	=64	=64	=64	=64	=64	=64	=64	=64	=64	=64	=64
4A\	.	.	.	.	.	.	.	.	.	16cc#\LL	.
.	.	.	.	.	.	.	.	.	.	16dd\	.
.	.	.	.	.	.	.	.	.	.	16cc#\	.
.	.	.	.	.	.	.	.	.	.	16b\JJ	.
4A\	.	.	.	.	.	.	.	.	.	4cc#\|	.
=65	=65	=65	=65	=65	=65	=65	=65	=65	=65	=65	=65
4A\	4 6	0r	.	0r	.	0r	.	0r	.	16aa\LL	.
.	.	.	.	.	.	.	.	.	.	16bb\	.
.	.	.	.	.	.	.	.	.	.	16aa\	.
.	.	.	.	.	.	.	.	.	.	16gg\JJ	.
4A\	.	.	.	.	.	.	.	.	.	16ff#\LL	.
.	.	.	.	.	.	.	.	.	.	16gg\	.
.	.	.	.	.	.	.	.	.	.	16ff#\	.
.	.	.	.	.	.	.	.	.	.	16ee\JJ	.
!	!	!	!	!	!	!	!	!	!	!LO:LB:g=original	!
=66	=66	=66	=66	=66	=66	=66	=66	=66	=66	=66	=66
4B\	5	.	.	.	.	.	.	.	.	16dd\LL	.
.	.	.	.	.	.	.	.	.	.	16ee\	.
.	.	.	.	.	.	.	.	.	.	16dd\	.
.	.	.	.	.	.	.	.	.	.	16cc#\JJ	.
4B\	.	.	.	.	.	.	.	.	.	4dd\|	.
=67	=67	=67	=67	=67	=67	=67	=67	=67	=67	=67	=67
4C#/	6	.	.	.	.	.	.	.	.	16ee\LL	.
.	.	.	.	.	.	.	.	.	.	16ff#\	.
.	.	.	.	.	.	.	.	.	.	16ee\	.
.	.	.	.	.	.	.	.	.	.	16dd\JJ	.
4C#/	.	.	.	.	.	.	.	.	.	4ee\|	.
=68	=68	=68	=68	=68	=68	=68	=68	=68	=68	=68	=68
4D/	5	.	.	.	.	.	.	.	.	16ff#\LL	.
.	.	.	.	.	.	.	.	.	.	16gg\	.
.	.	.	.	.	.	.	.	.	.	16ff#\	.
.	.	.	.	.	.	.	.	.	.	16ee\JJ	.
4D/	.	.	.	.	.	.	.	.	.	4ff#\|	.
=69	=69	=69	=69	=69	=69	=69	=69	=69	=69	=69	=69
4E\	5	0r	.	0r	.	0r	.	0r	.	4.gg\	.
4C#/	5	.	.	.	.	.	.	.	.	.	.
.	.	.	.	.	.	.	.	.	.	16ff#\LL	.
.	.	.	.	.	.	.	.	.	.	16ee\JJ	.
!LO:LB:g=original	!	!	!	!	!	!	!	!	!	!	!
=70	=70	=70	=70	=70	=70	=70	=70	=70	=70	=70	=70
4F#\	.	.	.	.	.	.	.	.	.	8aa\L	.
.	.	.	.	.	.	.	.	.	.	8ff#\	.
8r	.	.	.	.	.	.	.	.	.	8ee\	.
8F#\	.	.	.	.	.	.	.	.	.	8dd\J	.
=71	=71	=71	=71	=71	=71	=71	=71	=71	=71	=71	=71
4E\	4	.	.	.	.	.	.	.	.	4.gg\	.
4C#/	4	.	.	.	.	.	.	.	.	.	.
.	.	.	.	.	.	.	.	.	.	16ff#\LL	.
.	.	.	.	.	.	.	.	.	.	16ee\JJ	.
=72	=72	=72	=72	=72	=72	=72	=72	=72	=72	=72	=72
4F#\	6	.	.	.	.	.	.	.	.	16aa\LL	.
.	.	.	.	.	.	.	.	.	.	16ff#\JJ	.
.	.	.	.	.	.	.	.	.	.	8ee\	-tus
!	!	!	!	!	!	!	!	!	!	!LO:N:vis=8	!
*	*below	*	*	*	*	*	*	*	*	*	*
4G\	6	.	.	.	.	.	.	.	.	4dd\	s(um)
.	5	.	.	.	.	.	.	.	.	.	.
!	!	!	!	!	!	!	!	!	!	!LO:LB:g=original	!
=73	=73	=73	=73	=73	=73	=73	=73	=73	=73	=73	=73
4A\	6 4	0r	.	0r	.	0r	.	0r	.	4a\	.
4AA/	5 3	.	.	.	.	.	.	.	.	4ee\	.
=74	=74	=74	=74	=74	=74	=74	=74	=74	=74	=74	=74
4D\	.	.	.	.	.	.	.	.	.	4dd\	.
4F#\	.	.	.	.	.	.	.	.	.	8r	.
.	.	.	.	.	.	.	.	.	.	8aa\	.
!LO:LB:g=original	!	!	!	!	!	!	!	!	!	!	!
=75	=75	=75	=75	=75	=75	=75	=75	=75	=75	=75	=75
8G\L	.	.	.	.	.	.	.	.	.	4b\	.
8G\	.	.	.	.	.	.	.	.	.	.	.
*	*above	*	*	*	*	*	*	*	*	*	*
8A\	5	.	.	.	.	.	.	.	.	4cc#\	.
8A\J	.	.	.	.	.	.	.	.	.	.	.
=76	=76	=76	=76	=76	=76	=76	=76	=76	=76	=76	=76
!LO:TX:a:t=P:problem=mixedbeam	!	!	!	!	!	!	!	!	!	!	!
8B\L	6	.	.	.	.	.	.	.	.	4dd\	.
8B\	.	.	.	.	.	.	.	.	.	.	.
8C#/	6 5	.	.	.	.	.	.	.	.	8ee\	.
8C#/J	.	.	.	.	.	.	.	.	.	8ee\	.
=77	=77	=77	=77	=77	=77	=77	=77	=77	=77	=77	=77
8D\L	.	0r	.	0r	.	0r	.	0r	.	4ff#\	.
8D\	.	.	.	.	.	.	.	.	.	.	.
8E\	6	.	.	.	.	.	.	.	.	4gg\	.
8E\J	.	.	.	.	.	.	.	.	.	.	.
=78	=78	=78	=78	=78	=78	=78	=78	=78	=78	=78	=78
8F#\L	.	.	.	.	.	.	.	.	.	4.aa\	.
8F#\	.	.	.	.	.	.	.	.	.	.	.
8F#\	.	.	.	.	.	.	.	.	.	.	.
8F#\J	.	.	.	.	.	.	.	.	.	16gg\LL	.
.	.	.	.	.	.	.	.	.	.	16aa\JJ	.
!	!	!	!	!	!	!	!	!	!	!LO:LB:g=original	!
=79	=79	=79	=79	=79	=79	=79	=79	=79	=79	=79	=79
8G\L	5	.	.	.	.	.	.	.	.	4bb\	tus
8G\	.	.	.	.	.	.	.	.	.	.	.
8G\	6	.	.	.	.	.	.	.	.	4b\	s(um)
8G\J	.	.	.	.	.	.	.	.	.	.	.
!LO:LB:g=original	!	!	!	!	!	!	!	!	!	!	!
=80	=80	=80	=80	=80	=80	=80	=80	=80	=80	=80	=80
*	*below	*	*	*	*	*	*	*	*	*	*
8A\L	6 4	.	.	.	.	.	.	.	.	2a\	ni-
8A\	.	.	.	.	.	.	.	.	.	.	.
8A\	.	.	.	.	.	.	.	.	.	.	.
8A\J	.	.	.	.	.	.	.	.	.	.	.
=81	=81	=81	=81	=81	=81	=81	=81	=81	=81	=81	=81
8AA/L	3	2r	.	2r	.	2r	.	2r	.	2ee\	.
8AA/	.	.	.	.	.	.	.	.	.	.	.
8AA/	.	.	.	.	.	.	.	.	.	.	.
8AA/J	.	.	.	.	.	.	.	.	.	.	.
=82	=82	=82	=82	=82	=82	=82	=82	=82	=82	=82	=82
*2\right	*	*	*	*	*	*	*	*	*	*	*
!LO:TX:b:t=Ego	!	!	!	!	!	!	!	!	!	!	!
!LO:TX:a:t=Tutti	!	!LO:TX:a:t=P:all\right:problem	!	!LO:TX:a:t=P:all\right:problem	!	!LO:TX:a:t=P:all\right:problem	!	!LO:TX:a:t=P:all\right:problem	!	!	!
2D\	.	4.d\	E-	4.f#\	E-	4.a\	E-	4.dd\	E-	4dd\	-mis
.	.	.	.	.	.	.	.	.	.	4r	.
.	.	8d\	-go	8f#\	-go	8a\	-go	8dd\	-go	.	.
!	!	!LO:LB:g=original	!	!	!	!LO:LB:g=original	!	!LO:LB:g=original	!	!	!
=83	=83	=83	=83	=83	=83	=83	=83	=83	=83	=83	=83
!LO:TX:b:t=dixi	!	!	!	!	!	!	!	!	!	!LO:TX:b:t=13	!
2AA/	.	4A\	di-	4e\	di-	4a\	di-	4cc#\	di-	0r	.
.	.	4A\	-xi	4e\	-xi	4a\	-xi	4cc#\	-xi	.	.
!	!	!	!	!LO:LB:g=original	!	!	!	!	!	!	!
=84	=84	=84	=84	=84	=84	=84	=84	=84	=84	=84	=84
*	*below	*	*	*	*	*	*	*	*	*	*
4BB/	6	4B\	in	4d\	in	4g\	in	4b\	in	.	.
*	*above	*	*	*	*	*	*	*	*	*	*
4C#/	5 2	4c#\	ex-	4e\	ex-	4g\	ex-	4b\	ex-	.	.
=85	=85	=85	=85	=85	=85	=85	=85	=85	=85	=85	=85
4D\	.	4d\	-ceſ-	4f#\	-ceſ-	4f#\	-ceſ-	4a\	-ceſ-	.	.
4AA/	.	4A\	-su	4e\	-su	[4a\	-su	4cc#\	-su	.	.
!LO:LB:g=original	!	!	!	!	!	!	!	!	!	!	!
=86	=86	=86	=86	=86	=86	=86	=86	=86	=86	=86	=86
*	*below	*2\right	*	*	*	*	*	*2\right	*	*	*
2BB/	7	2B\	me-	2d\	me-	4a\]	.	2dd\	me-	.	.
.	#6	.	.	.	.	4g#X\	me-	.	.	.	.
=87	=87	=87	=87	=87	=87	=87	=87	=87	=87	=87	=87
4AA/	.	4A\	-o	4e\	-o	4a\	-o	4cc#\	-o	0r	.
8A\L	.	4r	.	4r	.	[4a\	om-	4r	.	.	.
8G\J	.	.	.	.	.	.	.	.	.	.	.
=88	=88	=88	=88	=88	=88	=88	=88	=88	=88	=88	=88
!	!	!LO:TX:b:t=2	!	!	!	!	!	!	!	!	!
4F#\	6	1r	.	4f#\	om-	4a\]	.	4dd\	om-	.	.
4C#/	.	.	.	4c#\	-niſ	[4a\	-niſ	4a\	-niſ	.	.
=89	=89	=89	=89	=89	=89	=89	=89	=89	=89	=89	=89
[2D\	.	.	.	4d\	ho-	4a\]	.	4f#/	ho-	.	.
.	.	.	.	4f#\	-mo	[4a\	ho-	4d/	-mo	.	.
!	!	!	!	!LO:LB:g=original	!	!LO:LB:g=original	!	!LO:LB:g=original	!	!	!
=90	=90	=90	=90	=90	=90	=90	=90	=90	=90	=90	=90
4D\]	.	4d\	om-	4d\	om-	4a\]	.	4f#/	om-	.	.
4A\	.	4A\	-niſ	4c#\	-niſ	[4a\	-mo	4a\	-niſ	.	.
!	!	!LO:LB:g=original	!	!	!	!	!	!	!	!	!
=91	=91	=91	=91	=91	=91	=91	=91	=91	=91	=91	=91
*	*	*	*	*2\right	*	*	*	*	*	*	*
4F#\	.	4F#\	om-	2d\	ho-	4a\]	.	2dd\	ho-	0r	.
4D\	.	4D\	-niſ	.	.	[4a\	om-	.	.	.	.
!LO:LB:g=original	!	!	!	!	!	!	!	!	!	!	!
=92	=92	=92	=92	=92	=92	=92	=92	=92	=92	=92	=92
4G\	.	4G\	ho-	2d\	-mo	4a\]	.	2dd\	-mo	.	.
*	*above	*	*	*	*	*	*	*	*	*	*
4Bn\	6	4B\	-mo	.	.	4g\	-niſ	.	.	.	.
=93	=93	=93	=93	=93	=93	=93	=93	=93	=93	=93	=93
*	*below	*	*	*	*	*	*	*	*	*	*
2A\	6 4	2A\	men-	(2f#\	men-	8f#\L	ho-	(2dd\	men-	.	.
.	.	.	.	.	.	8e\J	.	.	.	.	.
.	.	.	.	.	.	8f#\L	-mo	.	.	.	.
.	.	.	.	.	.	8g\J	.	.	.	.	.
=94	=94	=94	=94	=94	=94	=94	=94	=94	=94	=94	=94
*	*	*	*	*	*	*2\right	*	*	*	*	*
2AA/	5 3	2AA/	.	2e\)	.	2a\	men-	2cc#\)	.	.	.
=95	=95	=95	=95	=95	=95	=95	=95	=95	=95	=95	=95
2D\	.	2D\	-dax	2d\	-dax	2a\	-dax	2dd\	-dax	2r	.
=96	=96	=96	=96	=96	=96	=96	=96	=96	=96	=96	=96
!LO:TX:b:t=Quid retribu(am)	!	!	!	!	!	!	!	!	!	!	!
!LO:TX:a:t=solo	!	!LO:TX:b:t=11	!	!LO:TX:b:t=11	!	!LO:TX:b:t=11	!	!LO:TX:b:t=11	!	!	!
4d\	.	0r	.	0r	.	0r	.	0r	.	4dd\	quid
4d\	.	.	.	.	.	.	.	.	.	4r	.
=97	=97	=97	=97	=97	=97	=97	=97	=97	=97	=97	=97
*	*above	*	*	*	*	*	*	*	*	*	*
4B\	6 5	.	.	.	.	.	.	.	.	4.dd\	quid
4B\	.	.	.	.	.	.	.	.	.	.	.
.	.	.	.	.	.	.	.	.	.	8ff#\	re-
!	!	!	!	!	!	!	!	!	!	!LO:LB:g=original	!
=98	=98	=98	=98	=98	=98	=98	=98	=98	=98	=98	=98
*	*below	*	*	*	*	*	*	*	*	*	*
4A#X\	6	.	.	.	.	.	.	.	.	4ff#\	-tri-
4A#\	5	.	.	.	.	.	.	.	.	8cc#\	-bu-
.	.	.	.	.	.	.	.	.	.	8ee\	-(am)
!LO:LB:g=original	!	!	!	!	!	!	!	!	!	!	!
=99	=99	=99	=99	=99	=99	=99	=99	=99	=99	=99	=99
4B\	5	.	.	.	.	.	.	.	.	4.dd\	Do-
4B\	.	.	.	.	.	.	.	.	.	.	.
.	.	.	.	.	.	.	.	.	.	8ee\	-mi-
=100	=100	=100	=100	=100	=100	=100	=100	=100	=100	=100	=100
4B\	.	0r	.	0r	.	0r	.	0r	.	4ff#\	-no
4B\	.	.	.	.	.	.	.	.	.	4ff#\	pro
=101	=101	=101	=101	=101	=101	=101	=101	=101	=101	=101	=101
4An\	6	.	.	.	.	.	.	.	.	4.ff#\	om-
4A\	.	.	.	.	.	.	.	.	.	.	.
.	.	.	.	.	.	.	.	.	.	8cc#\	-ni-
=102	=102	=102	=102	=102	=102	=102	=102	=102	=102	=102	=102
4A\	.	.	.	.	.	.	.	.	.	4cc#\	-bus
4A\	.	.	.	.	.	.	.	.	.	[4ff#\	quae
=103	=103	=103	=103	=103	=103	=103	=103	=103	=103	=103	=103
4G\	7	.	.	.	.	.	.	.	.	4ff#\]	.
4G\	.	.	.	.	.	.	.	.	.	8gg\L	re-
.	.	.	.	.	.	.	.	.	.	8ff#\J	.
!	!	!	!	!	!	!	!	!	!	!LO:LB:g=original	!
=104	=104	=104	=104	=104	=104	=104	=104	=104	=104	=104	=104
4G\	6	1r	.	1r	.	1r	.	1r	.	8ee\L	-tri-
.	.	.	.	.	.	.	.	.	.	8dd\J	.
4G\	.	.	.	.	.	.	.	.	.	8cc#\	-bu-
.	.	.	.	.	.	.	.	.	.	8b\	-it
=105	=105	=105	=105	=105	=105	=105	=105	=105	=105	=105	=105
*	*above	*	*	*	*	*	*	*	*	*	*
4F#\	#3	.	.	.	.	.	.	.	.	4.a#X\	mi-
4F#\	.	.	.	.	.	.	.	.	.	.	.
.	.	.	.	.	.	.	.	.	.	8b\	.
!LO:LB:g=original	!	!	!	!	!	!	!	!	!	!	!
=106	=106	=106	=106	=106	=106	=106	=106	=106	=106	=106	=106
*	*below	*	*	*	*	*	*	*	*	*	*
4F#\	#	2r	.	2r	.	2r	.	2r	.	2cc#\	-hi
4F#\	.	.	.	.	.	.	.	.	.	.	.
!	!	!LO:LB:g=original	!	!LO:LB:g=original	!	!LO:LB:g=original	!	!LO:LB:g=original	!	!	!
=107	=107	=107	=107	=107	=107	=107	=107	=107	=107	=107	=107
!LO:TX:a:t=tutti	!	!	!	!	!	!	!	!	!	!LO:TX:b:t=16	!
2F#\	.	4.F#\	quid	4.c#\	quid	4.f#\	quid	4.a#X\	quid	0r	.
.	.	8F#\	re-	8c#\	re-	8f#\	re-	8a#\	re-	.	.
=108	=108	=108	=108	=108	=108	=108	=108	=108	=108	=108	=108
4B\	.	4B\	-tri-	4d\	-tri-	4f#\	-tri-	4b\	-tri-	.	.
4D/	6	8d\	-bu-	8d\	-bu-	8f#\	-bu-	8b\	-bu-	.	.
.	.	8d\	-am	8d\	-am	8f#\	-am	8b\	-am	.	.
=109	=109	=109	=109	=109	=109	=109	=109	=109	=109	=109	=109
.	7	.	.	.	.	.	.	.	.	.	.
2C#/	#	4.c#\	Do-	4.e\	Do-	4.e\	Do-	4b\	Do-	.	.
.	6	.	.	.	.	.	.	4a#X\	-mi-	.	.
.	.	8c#\	-mi-	8c#\	-mi-	8e\	-mi-	.	.	.	.
=110	=110	=110	=110	=110	=110	=110	=110	=110	=110	=110	=110
4BB/	.	4B\	-no	4d\	-no	4f#\	-no	4b\	-no	.	.
4B\	.	4B\	pro	4d\	pro	4f#\	pro	4b\	pro	.	.
=111	=111	=111	=111	=111	=111	=111	=111	=111	=111	=111	=111
4A#X\	.	4A#X\	om-	4c#\	om-	4f#\	om-	4cc#\	om-	0r	.
4F#\	#	8F#\	-ni-	8c#\	-ni-	8f#\	-ni-	8a#X\	-ni-	.	.
.	.	8F#\	-buſ	8c#\	-buſ	8f#\	-buſ	8a#\	-b(us)	.	.
!LO:PB:g=original	!	!LO:LB:g=original	!	!LO:LB:g=original	!	!LO:LB:g=original	!	!LO:LB:g=original	!	!	!
=112	=112	=112	=112	=112	=112	=112	=112	=112	=112	=112	=112
4.B\	.	4.B\	qu(ae)	4.d\	qu(ae)	4.f#\	quae	4.b\	qu(ae)	.	.
8B\	.	8B\	re-	8d\	re-	8f#\	re-	8b\	re-	.	.
=113	=113	=113	=113	=113	=113	=113	=113	=113	=113	=113	=113
4A#X\	.	4A#X\	-tri-	4c#\	-tri-	4f#\	-tri-	4cc#\	-tri-	.	.
4F#\	.	8F#\	-bu-	8c#\	-bu-	8f#\	-bi-	8a#X\	-bu-	.	.
.	.	8F#\	-it	8c#\	-it	8f#\	-ut	8a#\	-it	.	.
=114	=114	=114	=114	=114	=114	=114	=114	=114	=114	=114	=114
2G\	7	2G\	mi-	2B\	mi-	(4f#\	mi-	2b\	mi-	.	.
.	6	.	.	.	.	4e\)	.	.	.	.	.
=115	=115	=115	=115	=115	=115	=115	=115	=115	=115	=115	=115
2F#\	#	2F#\	-hi	2c#\	-hi	2f#\	-hi	2a#X\	-hi	0r	.
=116	=116	=116	=116	=116	=116	=116	=116	=116	=116	=116	=116
2B\	.	2B\	quid	2d\	quid	2f#\	quid	2b\	quid	.	.
=117	=117	=117	=117	=117	=117	=117	=117	=117	=117	=117	=117
2E#X\	7	4r	.	4r	.	4r	.	4r	.	.	.
.	5	4E#\	re-	4d\	re-	4g#X\	re-	4b\	re-	.	.
!LO:LB:g=original	!	!LO:LB:g=original	!	!LO:LB:g=original	!	!LO:LB:g=original	!	!LO:LB:g=original	!	!	!
=118	=118	=118	=118	=118	=118	=118	=118	=118	=118	=118	=118
2F#\	#	4F#\	-tri-	4c#\	-tri-	4f#\	-tri-	4a#X\	-tri-	.	.
.	.	8F#\	-bu-	8c#\	-bu-	8f#\	-bu-	8a#\	-bu-	.	.
.	.	8F#\	-am	8c#\	-am	8f#\	-(am)	8a#\	-am	.	.
=119	=119	=119	=119	=119	=119	=119	=119	=119	=119	=119	=119
4B\	7	4B\	quid	4d\	quid	4f#\	quid	4b\	quid	0r	.
4E#X\	5	8r	.	8r	.	8r	.	8r	.	.	.
.	4	8E#\	re-	8d\	re-	8g#X\	re-	8b\	re-	.	.
=120	=120	=120	=120	=120	=120	=120	=120	=120	=120	=120	=120
2F#\	5	4.F#\	-tri-	4.c#\	-tri-	4.f#\	-tri-	4b\	-tri-	.	.
.	4	.	.	.	.	.	.	8a#X\L	-bu-	.	.
.	.	8F#\	-bu-	8c#\	-bu-	8f#\	-bu-	8g#X\J	.	.	.
=121	=121	=121	=121	=121	=121	=121	=121	=121	=121	=121	=121
4F#\	#3	2F#\	-am	2c#\	-am	2f#\	-am	2a#X\	-am	.	.
4F#\	.	.	.	.	.	.	.	.	.	.	.
=122	=122	=122	=122	=122	=122	=122	=122	=122	=122	=122	=122
4F#\	.	2r;	.	2r;	.	2r;	.	2r;	.	.	.
4r;	.	.	.	.	.	.	.	.	.	.	.
=	=	=	=	=	=	=	=	=	=	=	=
*-	*-	*-	*-	*-	*-	*-	*-	*-	*-	*-	*-
!!!system-decoration: [(s1,s2,s3,s4,s5)]s6
!!!EED: Leszek Kubiak
!!!EST: 2021-03-24
!!!ENC: Berenika Jozajtis
!!!END: 2021-03-18
!!!RDF**kern: | = vertical stroke
